X: 20443
T: PARTRIDGE'S HORNPIPE
C:
%R: hornpipe, reel
B: Elias Howe "The Musician's Companion" 1843 p.44 #3
S: http://imslp.org/wiki/The_Musician's_Companion_(Howe,_Elias)
Z: 2015 John Chambers <jc:trillian.mit.edu>
M: C|
L: 1/8
K: D
% - - - - - - - - - - - - - - - - - - - - - - - - -
|:\
Adeg f2e2 | Adfa g2f2 | eAfA gAfA | edcB AGFE |\
Adeg f2e2 | Adfa g2f2 | eAfA gAfA | edce d2d2 :|
|:\
defg afdA | defg a2gf | gaba gfed | caaa agfe |\
defg afdA | defg a2gf | eAfA gAfA | edce d2f2 :|
% - - - - - - - - - - - - - - - - - - - - - - - - -

%%sep 1 1 500

